!!!OTL: Fengbao ge
!!!ARE: Asia, China,ÿZhejiang, Zhoushan
!! III, 637
!!!SCT: C1624
!!!YEM: Copyright 1995, estate of Helmut Schaffrath.
**kern
*ICvox
*Ivox
*M2/4
*k[f#]
*G:
{16aa
16ddd
16ddd
16ddd
8bb
8ddd
=1
8bb
8eee
16eee
16ddd
16ddd
16bb
=2
2aa}
=3
{8.aa
16dd
16ee
16gg
8aa
=4
8aa
8ee
8gg
16ee
16gg
=5
2ee}
=6
{8.b
16dd
8ee
8gg
=7
16aa
16aa
16gg
16ee
8ee
8r}
=8
{8b
16ee
16dd
16ee
16gg
8aa
=9
4aa
16aa
16gg
16ee
32dd
32ee
=10
8dd
[4.dd
=11
2dd]}
==
!!!AGN: Xiaodiao. Yumin de tianqi yange
!!!AMT: simple duple
!!!AIN: vox
!!!EED: Helmut Schaffrath
!!!EEV: 1.0
*-
!!!ONB: Tied note syntax fixed by Craig Sapp, 2004/05/03/
